X:77
T:Madam Hilingsborg’s Reel. WM.076
M:9/8
L:1/8
Q:3/8=120
S:Wm.Mittell’s MS, New Romney,Kent,1799
R:.Slip Jig
O:England
A:Kent
N:Compare with Drops of Brandy..cgp..
Z:vmp.Chris Partington
K:G
e|d2B BGB BGB|d2B BGBd2e|d2B BGB BGB|c2A ABAc2:|!
|:e|dBB gBB dBB|dBB gBBd2e|dBB gBB dBB|c2A ABA c2:|

